public/formular-icons/greece/lower-phi.svg

<svg style="vertical-align:-.464ex" xmlns="http://www.w3.org/2000/svg" width="1.348ex" height="2.034ex" viewBox="0 -694 596 899" xmlns:xlink="http://www.w3.org/1999/xlink"><defs><path id="a" d="M409 688q4 6 12 6h21q6-6 6-8 0-7-30-123-7-28-14-59t-12-46l-4-16q0-1 9-1t32-6 48-17q44-21 73-61t29-97-31-109-77-86-97-54-95-21h-4l-24-95q-6-23-13-55-8-32-11-38t-12-7h-6q-20 0-20 7 0 5 22 95l23 92q0 1-8 1-5 0-20 2T161 6t-54 30-45 53-19 82q0 60 33 113t81 86 97 52 88 19q5 0 6 4l30 122q31 119 31 121ZM122 150q0-34 12-59t33-38 36-18 34-8h7l93 377q-4 0-11-1t-29-8-42-16-44-29-41-46q-18-28-33-67-15-46-15-87Zm378 132q0 38-16 65t-40 38-39 15-24 4h-3l-46-187-48-188q0-2 1-2 8 0 32 6t40 14q43 19 74 53t44 70 19 64 6 48Z"/></defs><g stroke="currentColor" fill="currentColor" stroke-width="0"><use data-c="1D719" xlink:href="#a" transform="scale(1 -1)"/></g></svg>

<svg style="vertical-align: -0.464ex" xmlns="http://www.w3.org/2000/svg" width="1.348ex" height="2.034ex" role="img" focusable="false" viewBox="0 -694 596 899" xmlns:xlink="http://www.w3.org/1999/xlink"><defs><path id="MJX-127-TEX-I-1D719" d="M409 688Q413 694 421 694H429H442Q448 688 448 686Q448 679 418 563Q411 535 404 504T392 458L388 442Q388 441 397 441T429 435T477 418Q521 397 550 357T579 260T548 151T471 65T374 11T279 -10H275L251 -105Q245 -128 238 -160Q230 -192 227 -198T215 -205H209Q189 -205 189 -198Q189 -193 211 -103L234 -11Q234 -10 226 -10Q221 -10 206 -8T161 6T107 36T62 89T43 171Q43 231 76 284T157 370T254 422T342 441Q347 441 348 445L378 567Q409 686 409 688ZM122 150Q122 116 134 91T167 53T203 35T237 27H244L337 404Q333 404 326 403T297 395T255 379T211 350T170 304Q152 276 137 237Q122 191 122 150ZM500 282Q500 320 484 347T444 385T405 400T381 404H378L332 217L284 29Q284 27 285 27Q293 27 317 33T357 47Q400 66 431 100T475 170T494 234T500 282Z"></path></defs><g stroke="currentColor" fill="currentColor" stroke-width="0" transform="scale(1,-1)"><g data-mml-node="math"><g data-mml-node="mi"><use data-c="1D719" xlink:href="#MJX-127-TEX-I-1D719"></use></g></g></g></svg>
